build/img/icon/icon-advantages-privacy.svg

<svg width="31" height="27" viewBox="0 0 31 27" fill="none" xmlns="http://www.w3.org/2000/svg">
<path d="M15.6226 8.21716C15.297 8.21716 15.0327 8.48402 15.0327 8.81328C15.0327 9.14231 15.297 9.4094 15.6226 9.4094C15.9483 9.4094 16.2126 9.14231 16.2126 8.81328C16.2126 8.48402 15.9483 8.21716 15.6226 8.21716Z" fill="#00B2FF"/>
<path d="M28.9552 11.7939H26.6598C25.4497 8.30245 23.694 2.18035 20.5134 0.447642C18.9227 -0.417896 17.4191 0.186607 16.8536 1.41471C16.613 1.93678 16.1325 2.21132 15.6228 2.21132C15.1061 2.21132 14.6296 1.93072 14.392 1.41517C13.8465 0.228987 12.3788 -0.430936 10.8439 0.321898C7.61236 1.90767 5.80524 8.27614 4.58574 11.7939H2.2903C1.31254 11.7939 0.520508 12.5941 0.520508 13.5823C0.520508 14.5682 1.31438 15.3707 2.2903 15.3707H28.9552C29.933 15.3707 30.725 14.5703 30.725 13.5823C30.725 12.5961 29.9311 11.7939 28.9552 11.7939ZM6.6581 9.40947H13.263C13.5889 9.40947 13.853 9.14238 13.853 8.81335C13.853 8.48409 13.5889 8.21723 13.263 8.21723H7.07059C8.84892 3.25336 10.5102 1.81103 11.3591 1.39445C12.2853 0.940373 13.0476 1.3204 13.3223 1.91792C13.755 2.85727 14.6503 3.40356 15.6228 3.40356C16.5975 3.40356 17.4916 2.85518 17.9233 1.91792C18.206 1.3034 18.9722 0.963193 19.9537 1.49714C20.8066 1.96193 22.4627 3.45223 24.1747 8.21723H17.9825C17.6566 8.21723 17.3926 8.48409 17.3926 8.81335C17.3926 9.14261 17.6566 9.40947 17.9825 9.40947H24.5876C24.8858 10.2785 25.1956 11.1752 25.4099 11.7939H5.83588C6.0495 11.1769 6.35853 10.2822 6.6581 9.40947ZM28.9552 14.1784H2.2903C1.96492 14.1784 1.70037 13.9109 1.70037 13.5823C1.70037 13.253 1.96446 12.9862 2.2903 12.9862H28.9552C29.2806 12.9862 29.5451 13.2535 29.5451 13.5823C29.5451 13.9113 29.2808 14.1784 28.9552 14.1784Z" fill="#00B2FF"/>
<path d="M14.4429 17.7552H5.00399C4.67815 17.7552 4.41406 18.0221 4.41406 18.3513V20.7358C4.41406 23.6941 6.79591 26.1009 9.72345 26.1009C11.9417 26.1009 13.9051 24.7221 14.686 22.645C15.2792 22.3716 15.9664 22.3716 16.5595 22.645C17.3405 24.7221 19.3038 26.1007 21.5221 26.1007C24.4496 26.1007 26.8315 23.6941 26.8315 20.7356V18.3511C26.8315 18.0218 26.5674 17.755 26.2415 17.755H16.8026C16.4768 17.755 16.2127 18.0218 16.2127 18.3511V18.9472H15.0328V18.3511C15.0328 18.0221 14.7687 17.7552 14.4429 17.7552ZM9.72345 24.9086C7.44645 24.9086 5.59393 23.0367 5.59393 20.7358V18.9474H13.853V20.7358C13.853 23.0427 12.0104 24.9086 9.72345 24.9086ZM17.3926 18.9474H25.6516V20.7358C25.6516 23.0367 23.7991 24.9086 21.5221 24.9086C19.2294 24.9086 17.3926 23.0372 17.3926 20.7358V18.9474ZM16.2127 20.1397V20.7358C16.2127 20.9263 16.2235 21.1161 16.2431 21.3045C15.8332 21.2288 15.4124 21.2288 15.0024 21.3045C15.022 21.1161 15.0328 20.9263 15.0328 20.7358V20.1397H16.2127Z" fill="#00B2FF"/>
<path d="M9.72261 22.5241C8.74669 22.5241 7.95281 21.7216 7.95281 20.7357C7.95281 20.4064 7.68873 20.1396 7.36288 20.1396C7.03704 20.1396 6.77295 20.4064 6.77295 20.7357C6.77295 22.379 8.09615 23.7163 9.72261 23.7163C10.0485 23.7163 10.3125 23.4492 10.3125 23.1202C10.3125 22.7909 10.0485 22.5241 9.72261 22.5241Z" fill="#00B2FF"/>
<path d="M21.5225 23.7163C23.149 23.7163 24.4722 22.379 24.4722 20.7357C24.4722 20.4064 24.2081 20.1396 23.8823 20.1396C23.5564 20.1396 23.2923 20.4064 23.2923 20.7357C23.2923 21.7216 22.4985 22.5241 21.5225 22.5241C21.1967 22.5241 20.9326 22.7909 20.9326 23.1202C20.9326 23.4492 21.1967 23.7163 21.5225 23.7163Z" fill="#00B2FF"/>
</svg>

<svg width="31" height="27" fill="none" xmlns="http://www.w3.org/2000/svg"><path d="M15.623 8.217a.593.593 0 00-.59.596c0 .33.264.596.59.596.325 0 .59-.267.59-.596a.593.593 0 00-.59-.596z" fill="#00B2FF"/><path d="M28.955 11.794H26.66C25.45 8.302 23.694 2.18 20.513.448c-1.59-.866-3.094-.261-3.66.967-.24.522-.72.796-1.23.796-.517 0-.993-.28-1.231-.796C13.847.23 12.379-.43 10.844.322 7.612 1.908 5.805 8.276 4.586 11.794H2.29c-.977 0-1.77.8-1.77 1.788 0 .986.794 1.789 1.77 1.789h26.665c.978 0 1.77-.8 1.77-1.789 0-.986-.794-1.788-1.77-1.788zM6.658 9.409h6.605c.326 0 .59-.267.59-.596a.593.593 0 00-.59-.596H7.071c1.778-4.964 3.44-6.406 4.288-6.823.926-.454 1.689-.074 1.963.524a2.513 2.513 0 002.3 1.486c.976 0 1.87-.549 2.301-1.486.283-.615 1.05-.955 2.03-.42.854.464 2.51 1.954 4.222 6.72h-6.192a.593.593 0 00-.59.595c0 .33.264.596.59.596h6.605c.298.87.608 1.766.822 2.385H5.836c.213-.617.523-1.512.822-2.385zm22.297 4.77H2.29a.594.594 0 01-.59-.597c0-.329.264-.596.59-.596h26.665c.326 0 .59.268.59.596a.593.593 0 01-.59.596zm-14.512 3.576H5.004a.593.593 0 00-.59.596v2.385c0 2.958 2.382 5.365 5.31 5.365a5.3 5.3 0 004.962-3.456 2.242 2.242 0 011.873 0 5.3 5.3 0 004.963 3.456c2.928 0 5.31-2.407 5.31-5.365V18.35a.593.593 0 00-.59-.596h-9.44a.593.593 0 00-.59.596v.596h-1.18v-.596a.593.593 0 00-.59-.596zm-4.72 7.154c-2.277 0-4.13-1.872-4.13-4.173v-1.789h8.26v1.789c0 2.307-1.843 4.173-4.13 4.173zm7.67-5.962h8.259v1.789c0 2.3-1.853 4.173-4.13 4.173-2.293 0-4.13-1.872-4.13-4.173v-1.789zm-1.18 1.193v.596c0 .19.01.38.03.569a3.418 3.418 0 00-1.24 0c.019-.189.03-.379.03-.57v-.595h1.18z" fill="#00B2FF"/><path d="M9.723 22.524c-.976 0-1.77-.802-1.77-1.788a.593.593 0 00-.59-.596.593.593 0 00-.59.596c0 1.643 1.323 2.98 2.95 2.98.325 0 .59-.267.59-.596a.593.593 0 00-.59-.596zm11.8 1.192c1.626 0 2.95-1.337 2.95-2.98a.593.593 0 00-.59-.596.593.593 0 00-.59.596c0 .986-.794 1.788-1.77 1.788a.593.593 0 00-.59.596c0 .33.264.596.59.596z" fill="#00B2FF"/></svg>
